public/flags/SR.svg

<svg fill="none" height="53" viewBox="0 0 61 53" width="61" xmlns="http://www.w3.org/2000/svg" xmlns:xlink="http://www.w3.org/1999/xlink"><mask id="a" height="43" maskUnits="userSpaceOnUse" width="59" x="1" y="3"><rect fill="#fff" height="41.4393" rx="3.7125" stroke="#fff" stroke-width="1.06071" width="57.9393" x="1.53036" y="3.53036"/></mask><rect fill="#fff" height="41.4393" rx="3.7125" stroke="#f5f5f5" stroke-width="1.06071" width="57.9393" x="1.53036" y="3.53036"/><g clip-rule="evenodd" fill-rule="evenodd" mask="url(#a)"><path d="m1 11.5h59v-8.5h-59z" fill="#43924c"/><path d="m1 45.4999h59v-8.5h-59z" fill="#43924c"/><path d="m1 31.3334h59v-14.1667h-59z" fill="#cd153a"/><path d="m30.4999 27.8625-4.1285 2.8264 1.3897-4.8331-3.9413-3.0863 4.9874-.1607 1.6927-4.7338 1.6927 4.7338 4.9873.1607-3.9412 3.0863 1.3897 4.8331z" fill="#f5d24b"/></g></svg>

<svg width="61" height="53" viewBox="0 0 61 53" fill="none" xmlns="http://www.w3.org/2000/svg">
<rect x="1.53036" y="3.53036" width="57.9393" height="41.4393" rx="3.7125" fill="white" stroke="#F5F5F5" stroke-width="1.06071"/>
<mask id="mask0" mask-type="alpha" maskUnits="userSpaceOnUse" x="1" y="3" width="59" height="43">
<rect x="1.53036" y="3.53036" width="57.9393" height="41.4393" rx="3.7125" fill="white" stroke="white" stroke-width="1.06071"/>
</mask>
<g mask="url(#mask0)">
<path fill-rule="evenodd" clip-rule="evenodd" d="M1 11.5H60V3H1V11.5Z" fill="#43924C"/>
<path fill-rule="evenodd" clip-rule="evenodd" d="M1 45.4999H60V36.9999H1V45.4999Z" fill="#43924C"/>
<path fill-rule="evenodd" clip-rule="evenodd" d="M1 31.3334H60V17.1667H1V31.3334Z" fill="#CD153A"/>
<path fill-rule="evenodd" clip-rule="evenodd" d="M30.4999 27.8625L26.3714 30.6889L27.7611 25.8558L23.8198 22.7695L28.8072 22.6088L30.4999 17.875L32.1926 22.6088L37.1799 22.7695L33.2387 25.8558L34.6284 30.6889L30.4999 27.8625Z" fill="#F5D24B"/>
</g>
</svg>
